X:1
T:Blackberry Blossoms
N:as played by Sally Sloane on fiddle
Z:Ian Hayden, 2017
M:4/4
L:1/8
K:Dmaj
dB|AFEA FDDE|F2FE F2dB|AFEA FDDA|Beed e2:|
|d2dc defe|d2de fdBc|d2dc defd|B2e2 e2Bc|
|d2dc defe|d2de fdBd|fdec dBAF|B2e2 e2dB|]
